content/numerical-computing/images/fixed-point.svg

<svg height="30.827pt" viewBox="0 0 257.2 30.827" width="257.2pt" xmlns="http://www.w3.org/2000/svg" xmlns:xlink="http://www.w3.org/1999/xlink"><clipPath id="a"><path d="m0 7h257.199219v3h-257.199219zm0 0"/></clipPath><clipPath id="b"><path d="m249 5h8.199219v7h-8.199219zm0 0"/></clipPath><symbol id="c" overflow="visible"><path d="m3.765625-9.890625c-2.21875 0-3.34375 1.765625-3.34375 5.25 0 1.671875.296875 3.125.796875 3.828125s1.3125 1.09375 2.1875 1.09375c2.171875 0 3.265625-1.859375 3.265625-5.53125 0-3.140625-.9375-4.640625-2.90625-4.640625zm-.25.515625c1.390625 0 1.953125 1.40625 1.953125 4.84375 0 3.046875-.546875 4.3125-1.875 4.3125-1.390625 0-1.96875-1.4375-1.96875-4.9375 0-3.03125.53125-4.21875 1.890625-4.21875zm0 0"/></symbol><symbol id="d" overflow="visible"><path d="m.96875-7.953125h.140625l1.84375-.84375c.015625-.015625.03125-.015625.046875-.015625.078125 0 .109375.140625.109375.484375v6.953125c0 .75-.15625.90625-.921875.9375l-.8125.046875v.4375c2.203125-.046875 2.203125-.046875 2.375-.046875.1875 0 .5 0 .984375.015625.171875.015625.671875.015625 1.265625.03125v-.4375l-.75-.046875c-.796875-.03125-.9375-.1875-.9375-.9375v-8.515625l-.203125-.0625c-.921875.484375-1.9375.921875-3.25 1.375zm0 0"/></symbol><symbol id="e" overflow="visible"><path d="m5.5625-1.59375-.34375.25c-.765625.546875-1.453125.78125-1.96875.78125-.640625 0-1.546875-.6875-1.75-1.609375-.015625-.140625-.015625-.296875-.015625-.453125 0-.171875 0-.359375.03125-.53125.359375-.046875 1.046875-.046875 1.15625-.046875.6875 0 1.5625 0 2 .015625l.09375-.078125.203125-.5c-1.0625.015625-1.234375.015625-1.78125.015625-.109375 0-1.03125-.015625-1.5625-.015625.125-.6875.390625-1.453125 1.015625-1.984375.40625-.34375.90625-.53125 1.40625-.53125.46875 0 .9375.09375 1.234375.4375.09375.109375.25.34375.375.5625l.265625-.03125.59375-.734375c-.453125-.53125-1.125-.859375-1.875-.859375-.9375 0-1.875.34375-2.640625 1.015625-.921875.75-1.53125 1.8125-1.71875 2.90625-.03125.265625-.0625.515625-.0625.765625 0 .609375.171875 1.203125.546875 1.65625.4375.546875 1.21875.71875 1.96875.71875.84375 0 1.59375-.421875 2.953125-1.46875zm0 0"/></symbol><g clip-path="url(#a)"><path d="m128.001563 639.998281h255.999999" fill="none" stroke="#bebebe" stroke-linejoin="round" stroke-miterlimit="10" stroke-width="1.2" transform="matrix(1 0 0 -1 -127.4 648.51)"/></g><path d="m256.601562 8.511719-7-2.332031v4.660156zm0 0" fill="#bebebe" fill-rule="evenodd"/><g clip-path="url(#b)"><path d="m384.001562 639.998281-7 2.332031v-4.660156zm0 0" fill="none" stroke="#bebebe" stroke-linejoin="round" stroke-miterlimit="10" stroke-width="1.2" transform="matrix(1 0 0 -1 -127.4 648.51)"/></g><path d="m128.001563 639.998281 7-2.328125v4.660156zm0 0" style="fill-rule:evenodd;fill:#bebebe;stroke-width:1.2;stroke-linejoin:round;stroke:#bebebe;stroke-miterlimit:10" transform="matrix(1 0 0 -1 -127.4 648.51)"/><path d="m256.001562 647.908437v-15.632812" fill="none" stroke="#bebebe" stroke-linejoin="round" stroke-miterlimit="10" stroke-width="1.2" transform="matrix(1 0 0 -1 -127.4 648.51)"/><use fill="#bebebe" x="125.233" xlink:href="#c" y="28.613"/><g fill="none" stroke="#bebebe" stroke-linejoin="round" stroke-miterlimit="10" stroke-width="1.2" transform="matrix(1 0 0 -1 -127.4 648.51)"><path d="m352.122656 647.908437v-15.632812"/><path d="m271.853125 647.908437v-15.632812"/><path d="m287.954687 647.908437v-15.632812"/><path d="m303.888281 647.908437v-15.632812"/><path d="m319.876562 647.908437v-15.632812"/><path d="m335.896094 647.908437v-15.632812"/><path d="m239.927344 647.908437v-15.632812"/><path d="m224.048438 647.908437v-15.632812"/><path d="m208.110938 647.908437v-15.632812"/><path d="m191.982031 647.908437v-15.632812"/><path d="m175.997656 647.908437v-15.632812"/><path d="m160.048438 647.908437v-15.632812"/><path d="m144.028906 647.908437v-15.632812"/></g><use fill="#bebebe" x="141.71" xlink:href="#e" y="27.184"/><use fill="#bebebe" x="221.398" xlink:href="#d" y="29.741"/></svg>

<?xml version="1.0" encoding="UTF-8"?>
<svg xmlns="http://www.w3.org/2000/svg" xmlns:xlink="http://www.w3.org/1999/xlink" width="257.2pt" height="30.827pt" viewBox="0 0 257.2 30.827" version="1.1">
<defs>
<g>
<symbol overflow="visible" id="glyph0-0">
<path style="stroke:none;" d=""/>
</symbol>
<symbol overflow="visible" id="glyph0-1">
<path style="stroke:none;" d="M 3.765625 -9.890625 C 1.546875 -9.890625 0.421875 -8.125 0.421875 -4.640625 C 0.421875 -2.96875 0.71875 -1.515625 1.21875 -0.8125 C 1.71875 -0.109375 2.53125 0.28125 3.40625 0.28125 C 5.578125 0.28125 6.671875 -1.578125 6.671875 -5.25 C 6.671875 -8.390625 5.734375 -9.890625 3.765625 -9.890625 Z M 3.515625 -9.375 C 4.90625 -9.375 5.46875 -7.96875 5.46875 -4.53125 C 5.46875 -1.484375 4.921875 -0.21875 3.59375 -0.21875 C 2.203125 -0.21875 1.625 -1.65625 1.625 -5.15625 C 1.625 -8.1875 2.15625 -9.375 3.515625 -9.375 Z M 3.515625 -9.375 "/>
</symbol>
<symbol overflow="visible" id="glyph0-2">
<path style="stroke:none;" d="M 0.96875 -7.953125 L 1.109375 -7.953125 L 2.953125 -8.796875 C 2.96875 -8.8125 2.984375 -8.8125 3 -8.8125 C 3.078125 -8.8125 3.109375 -8.671875 3.109375 -8.328125 L 3.109375 -1.375 C 3.109375 -0.625 2.953125 -0.46875 2.1875 -0.4375 L 1.375 -0.390625 L 1.375 0.046875 C 3.578125 0 3.578125 0 3.75 0 C 3.9375 0 4.25 0 4.734375 0.015625 C 4.90625 0.03125 5.40625 0.03125 6 0.046875 L 6 -0.390625 L 5.25 -0.4375 C 4.453125 -0.46875 4.3125 -0.625 4.3125 -1.375 L 4.3125 -9.890625 L 4.109375 -9.953125 C 3.1875 -9.46875 2.171875 -9.03125 0.859375 -8.578125 Z M 0.96875 -7.953125 "/>
</symbol>
<symbol overflow="visible" id="glyph1-0">
<path style="stroke:none;" d=""/>
</symbol>
<symbol overflow="visible" id="glyph1-1">
<path style="stroke:none;" d="M 5.5625 -1.59375 L 5.21875 -1.34375 C 4.453125 -0.796875 3.765625 -0.5625 3.25 -0.5625 C 2.609375 -0.5625 1.703125 -1.25 1.5 -2.171875 C 1.484375 -2.3125 1.484375 -2.46875 1.484375 -2.625 C 1.484375 -2.796875 1.484375 -2.984375 1.515625 -3.15625 C 1.875 -3.203125 2.5625 -3.203125 2.671875 -3.203125 C 3.359375 -3.203125 4.234375 -3.203125 4.671875 -3.1875 L 4.765625 -3.265625 L 4.96875 -3.765625 C 3.90625 -3.75 3.734375 -3.75 3.1875 -3.75 C 3.078125 -3.75 2.15625 -3.765625 1.625 -3.765625 C 1.75 -4.453125 2.015625 -5.21875 2.640625 -5.75 C 3.046875 -6.09375 3.546875 -6.28125 4.046875 -6.28125 C 4.515625 -6.28125 4.984375 -6.1875 5.28125 -5.84375 C 5.375 -5.734375 5.53125 -5.5 5.65625 -5.28125 L 5.921875 -5.3125 L 6.515625 -6.046875 C 6.0625 -6.578125 5.390625 -6.90625 4.640625 -6.90625 C 3.703125 -6.90625 2.765625 -6.5625 2 -5.890625 C 1.078125 -5.140625 0.46875 -4.078125 0.28125 -2.984375 C 0.25 -2.71875 0.21875 -2.46875 0.21875 -2.21875 C 0.21875 -1.609375 0.390625 -1.015625 0.765625 -0.5625 C 1.203125 -0.015625 1.984375 0.15625 2.734375 0.15625 C 3.578125 0.15625 4.328125 -0.265625 5.6875 -1.3125 Z M 5.5625 -1.59375 "/>
</symbol>
</g>
<clipPath id="clip1">
  <path d="M 0 7 L 257.199219 7 L 257.199219 10 L 0 10 Z M 0 7 "/>
</clipPath>
<clipPath id="clip2">
  <path d="M 249 5 L 257.199219 5 L 257.199219 12 L 249 12 Z M 249 5 "/>
</clipPath>
</defs>
<g id="surface1">
<g clip-path="url(#clip1)" clip-rule="nonzero">
<path style="fill:none;stroke-width:1.2;stroke-linecap:butt;stroke-linejoin:round;stroke:rgb(74.499512%,74.499512%,74.499512%);stroke-opacity:1;stroke-miterlimit:10;" d="M 128.001563 639.998281 L 384.001562 639.998281 " transform="matrix(1,0,0,-1,-127.4,648.51)"/>
</g>
<path style=" stroke:none;fill-rule:evenodd;fill:rgb(74.499512%,74.499512%,74.499512%);fill-opacity:1;" d="M 256.601562 8.511719 L 249.601562 6.179688 L 249.601562 10.839844 Z M 256.601562 8.511719 "/>
<g clip-path="url(#clip2)" clip-rule="nonzero">
<path style="fill:none;stroke-width:1.2;stroke-linecap:butt;stroke-linejoin:round;stroke:rgb(74.499512%,74.499512%,74.499512%);stroke-opacity:1;stroke-miterlimit:10;" d="M 384.001562 639.998281 L 377.001562 642.330312 L 377.001562 637.670156 Z M 384.001562 639.998281 " transform="matrix(1,0,0,-1,-127.4,648.51)"/>
</g>
<path style="fill-rule:evenodd;fill:rgb(74.499512%,74.499512%,74.499512%);fill-opacity:1;stroke-width:1.2;stroke-linecap:butt;stroke-linejoin:round;stroke:rgb(74.499512%,74.499512%,74.499512%);stroke-opacity:1;stroke-miterlimit:10;" d="M 128.001563 639.998281 L 135.001563 637.670156 L 135.001563 642.330312 Z M 128.001563 639.998281 " transform="matrix(1,0,0,-1,-127.4,648.51)"/>
<path style="fill:none;stroke-width:1.2;stroke-linecap:butt;stroke-linejoin:round;stroke:rgb(74.499512%,74.499512%,74.499512%);stroke-opacity:1;stroke-miterlimit:10;" d="M 256.001562 647.908437 L 256.001562 632.275625 " transform="matrix(1,0,0,-1,-127.4,648.51)"/>
<g style="fill:rgb(74.499512%,74.499512%,74.499512%);fill-opacity:1;">
  <use xlink:href="#glyph0-1" x="125.233" y="28.613"/>
</g>
<path style="fill:none;stroke-width:1.2;stroke-linecap:butt;stroke-linejoin:round;stroke:rgb(74.499512%,74.499512%,74.499512%);stroke-opacity:1;stroke-miterlimit:10;" d="M 352.122656 647.908437 L 352.122656 632.275625 " transform="matrix(1,0,0,-1,-127.4,648.51)"/>
<path style="fill:none;stroke-width:1.2;stroke-linecap:butt;stroke-linejoin:round;stroke:rgb(74.499512%,74.499512%,74.499512%);stroke-opacity:1;stroke-miterlimit:10;" d="M 271.853125 647.908437 L 271.853125 632.275625 " transform="matrix(1,0,0,-1,-127.4,648.51)"/>
<path style="fill:none;stroke-width:1.2;stroke-linecap:butt;stroke-linejoin:round;stroke:rgb(74.499512%,74.499512%,74.499512%);stroke-opacity:1;stroke-miterlimit:10;" d="M 287.954687 647.908437 L 287.954687 632.275625 " transform="matrix(1,0,0,-1,-127.4,648.51)"/>
<path style="fill:none;stroke-width:1.2;stroke-linecap:butt;stroke-linejoin:round;stroke:rgb(74.499512%,74.499512%,74.499512%);stroke-opacity:1;stroke-miterlimit:10;" d="M 303.888281 647.908437 L 303.888281 632.275625 " transform="matrix(1,0,0,-1,-127.4,648.51)"/>
<path style="fill:none;stroke-width:1.2;stroke-linecap:butt;stroke-linejoin:round;stroke:rgb(74.499512%,74.499512%,74.499512%);stroke-opacity:1;stroke-miterlimit:10;" d="M 319.876562 647.908437 L 319.876562 632.275625 " transform="matrix(1,0,0,-1,-127.4,648.51)"/>
<path style="fill:none;stroke-width:1.2;stroke-linecap:butt;stroke-linejoin:round;stroke:rgb(74.499512%,74.499512%,74.499512%);stroke-opacity:1;stroke-miterlimit:10;" d="M 335.896094 647.908437 L 335.896094 632.275625 " transform="matrix(1,0,0,-1,-127.4,648.51)"/>
<path style="fill:none;stroke-width:1.2;stroke-linecap:butt;stroke-linejoin:round;stroke:rgb(74.499512%,74.499512%,74.499512%);stroke-opacity:1;stroke-miterlimit:10;" d="M 239.927344 647.908437 L 239.927344 632.275625 " transform="matrix(1,0,0,-1,-127.4,648.51)"/>
<path style="fill:none;stroke-width:1.2;stroke-linecap:butt;stroke-linejoin:round;stroke:rgb(74.499512%,74.499512%,74.499512%);stroke-opacity:1;stroke-miterlimit:10;" d="M 224.048438 647.908437 L 224.048438 632.275625 " transform="matrix(1,0,0,-1,-127.4,648.51)"/>
<path style="fill:none;stroke-width:1.2;stroke-linecap:butt;stroke-linejoin:round;stroke:rgb(74.499512%,74.499512%,74.499512%);stroke-opacity:1;stroke-miterlimit:10;" d="M 208.110938 647.908437 L 208.110938 632.275625 " transform="matrix(1,0,0,-1,-127.4,648.51)"/>
<path style="fill:none;stroke-width:1.2;stroke-linecap:butt;stroke-linejoin:round;stroke:rgb(74.499512%,74.499512%,74.499512%);stroke-opacity:1;stroke-miterlimit:10;" d="M 191.982031 647.908437 L 191.982031 632.275625 " transform="matrix(1,0,0,-1,-127.4,648.51)"/>
<path style="fill:none;stroke-width:1.2;stroke-linecap:butt;stroke-linejoin:round;stroke:rgb(74.499512%,74.499512%,74.499512%);stroke-opacity:1;stroke-miterlimit:10;" d="M 175.997656 647.908437 L 175.997656 632.275625 " transform="matrix(1,0,0,-1,-127.4,648.51)"/>
<path style="fill:none;stroke-width:1.2;stroke-linecap:butt;stroke-linejoin:round;stroke:rgb(74.499512%,74.499512%,74.499512%);stroke-opacity:1;stroke-miterlimit:10;" d="M 160.048438 647.908437 L 160.048438 632.275625 " transform="matrix(1,0,0,-1,-127.4,648.51)"/>
<path style="fill:none;stroke-width:1.2;stroke-linecap:butt;stroke-linejoin:round;stroke:rgb(74.499512%,74.499512%,74.499512%);stroke-opacity:1;stroke-miterlimit:10;" d="M 144.028906 647.908437 L 144.028906 632.275625 " transform="matrix(1,0,0,-1,-127.4,648.51)"/>
<g style="fill:rgb(74.499512%,74.499512%,74.499512%);fill-opacity:1;">
  <use xlink:href="#glyph1-1" x="141.71" y="27.184"/>
</g>
<g style="fill:rgb(74.499512%,74.499512%,74.499512%);fill-opacity:1;">
  <use xlink:href="#glyph0-2" x="221.398" y="29.741"/>
</g>
</g>
</svg>
